!!!COM: Palestrina, Giovanni Perluigi da
!!!OPR: Jam Christus astra ascenderat
!!!OTL: Gloria
**kern	**kern	**kern	**kern
*Ibass	*Itenor	*Icalto	*Icant
!Bassus	!Tenor	!Altus	!Cantus
*clefF4	*clefGv2	*clefG2	*clefG2
*k[b-]	*k[b-]	*k[b-]	*k[b-]
*G:dor	*G:dor	*G:dor	*G:dor
*M4/2	*M4/2	*M4/2	*M4/2
=1	=1	=1	=1
0r	1.c	0r	0r
.	2c	.	.
=2	=2	=2	=2
0r	1e-	0r	1.g
.	1c	.	.
.	.	.	2g
=3	=3	=3	=3
1.G	1B-	0r	1b-
.	1e-	.	1g
2G	.	.	.
=4	=4	=4	=4
1B-	2.d	2r	1f
.	.	1d	.
.	4c	.	.
1G	4B-	.	1b-
.	4A	.	.
.	[2B-	2d	.
=5	=5	=5	=5
1F	2B-]	1f	2cc
.	2A	.	2cc
1B-	2B-	1d	2dd
.	[2f	.	2b-
=6	=6	=6	=6
2c	4f]	1c	4a
.	4e	.	4g
2c	2e	.	4cc
.	.	.	4b-
1d	2f	1f	4a
.	.	.	4g
.	[2a	.	4f
.	.	.	4e
=7	=7	=7	=7
1B-	2a]	2f	2d
.	2g	2g	1dd
1A	2f	2a	.
.	2e	[2a	2cc#
=8	=8	=8	=8
1d	4f	2a]	4dd
.	4g	.	4ee
.	4a	2f	4ff
.	4f	.	4dd
1G	2.g	2b-	4ee
.	.	.	4dd
.	.	2b-	[2dd
.	4f	.	.
=9	=9	=9	=9
2.A	1e	1a	2dd]
.	.	.	2cc#
4G	.	.	.
2F#	[1d	2a	2dd
2G	.	2g	2b-
=10	=10	=10	=10
1D	1d]	2g	1a
.	.	2f	.
2r	2r	2.b-	1g
2G	2d	.	.
.	.	4cc	.
=11	=11	=11	=11
2G	2e	2b-	0r
2F	2f	2.a	.
2.B-	2.d	.	.
.	.	4g	.
.	.	[2g	.
4c	4e-	.	.
=12	=12	=12	=12
2B-	2d	2g]	0r
2A	2c	2f#	.
1G	2d	2g	.
.	[2g	[2b-	.
=13	=13	=13	=13
0r	2g]	2b-]	1.dd
.	2f#	2a	.
.	2g	2b-	.
.	2e-	2g	2cc
=14	=14	=14	=14
2r	2d	2a	2ff
1d	2G	2b-	2gg
.	1A	2.a	2ff
2c#	.	.	[2ee
.	.	4g	.
=15	=15	=15	=15
2d	0r	2f	4ee]
.	.	.	4dd
2G	.	2g	1dd
1A	.	1e	.
.	.	.	2cc#
=16	=16	=16	=16
1D	2r	2d	2.dd
.	1d	1f	.
.	.	.	8cc
.	.	.	8b-
2r	.	.	1a
[2A	2c	2e	.
=17	=17	=17	=17
2A]	2f	2a	0r
2G	1g	2b-	.
2c	.	2.a	.
2d	2f	.	.
.	.	8g	.
.	.	8f	.
=18	=18	=18	=18
2c	2e	1g	2r
2B-	2d	.	2dd
1A	1e	1a	2dd
.	.	.	2cc
=19	=19	=19	=19
2d	2r	2a	2ff
2G	2d	2b-	2gg
1A	2d	1a	2ff
.	2c	.	[2ee
=20	=20	=20	=20
2B-	2f	1d	4ee]
.	.	.	4dd
2G	2g	.	1dd
1A	1e	2.a	.
.	.	.	2cc#
.	.	4g	.
=21	=21	=21	=21
2r	1d	2f#	1dd
1G	.	1g	.
.	[1B	.	2r
2G	.	2g	[2dd
=22	=22	=22	=22
1G	2B]	0g	2dd]
.	2B	.	2dd
2r	1c	.	1ee-
[2c	.	.	.
=23	=23	=23	=23
2c]	2G	1g	2dd
2B	2G	.	2dd
4c	2.A	1e	2.cc
4B-	.	.	.
4A	.	.	.
4G	4B-	.	4b-
=24	=24	=24	=24
4F	2c	1f	2a
4E	.	.	.
2D	2.d	.	2.b-
1F	.	1f	.
.	4c	.	4a
.	2c	.	[2a
=25	=25	=25	=25
1G	1B-	2.d	2a]
.	.	.	2g
.	.	4e	.
[1D	[1A	2f	2a
.	.	[2d	[2f
=26	=26	=26	=26
1D]	0A]	2d]	2f]
.	.	2f	2a
1r	.	1e	1cc
=27	=27	=27	=27
1.D	2r	0d	1dd
.	1F	.	.
.	.	.	2b-
2F	2A	.	2a
=28	=28	=28	=28
1E-	1c	1G	1.g
1D	1d	2A	.
.	.	2d	2f#
=29	=29	=29	=29
2G	2B-	[0d	2g
2F#	2A	.	2.a
1G	1B-	.	.
.	.	.	4g
.	.	.	[2g
=30	=30	=30	=30
1D	1A	1d]	2g]
.	.	.	2f#
1G	2G	1d	1g
.	[2G	.	.
=31	=31	=31	=31
0r	4G]	2r	2r
.	4G	.	.
.	2G	2.d	2.g
.	2B-	.	.
.	.	4d	4g
.	2c	2e	2g
=32	=32	=32	=32
0r	2d	2f	2b-
.	2e	2g	2cc
.	2f	2a	1dd
.	[2g	[2b-	.
=33	=33	=33	=33
0r	2g]	2b-]	2ee
.	4f	4a	2.ff
.	4e	4g	.
.	4d	1a	.
.	4e	.	4ee
.	4f	.	[2dd
.	4d	.	.
=34	=34	=34	=34
1r	1e	1g	2dd]
.	.	.	2cc#
2r	1d	1a	[1dd
[2D	.	.	.
=35	=35	=35	=35
2D]	2r	2r	1dd]
2D	1A	1d	.
2F	.	.	1r
2G	2B-	2d	.
=36	=36	=36	=36
2A	2c	2f	1r
2B-	2d	2g	.
2c	2e	2a	2r
[2d	[2f	2b-	2d
=37	=37	=37	=37
4d]	4f]	2a	2f
4c	4e	.	.
2B-	2d	2.g	2g
1A	1c	.	2a
.	.	4f#	.
.	.	4f#	2cc
.	.	8e	.
.	.	8f#	.
=38	=38	=38	=38
0G	2d	2.g	2cc
.	2.g	.	4b-
.	.	8f	4a
.	.	8e	.
.	.	[1d	2b-
.	4g	.	.
.	2g	.	2b-
=39	=39	=39	=39
2r	0f	1d]	0a
2.d	.	.	.
.	.	2r	.
4d	.	.	.
2d	.	[2a	.
=40	=40	=40	=40
2c	1e	4a]	1r
.	.	4a	.
2A	.	2a	.
2.B-	2.d	2f	2r
.	.	2d	[2dd
4A	4c	.	.
=41	=41	=41	=41
2G	2B-	2g	4dd]
.	.	.	4dd
2F#	2A	2a	2dd
[1G	4G	1d	2b-
.	4A	.	.
.	4B-	.	2g
.	4c	.	.
=42	=42	=42	=42
1G]	1d	2.g	2.b-
.	.	4a	4a
1r	2r	2b-	2g
.	[2d	2a	2f#
=43	=43	=43	=43
1G	2d]	1b	1g
.	2G	.	.
1C	1g	1cc	1ee-
=44	=44	=44	=44
1D	[0f	2a	1dd
.	.	1b-	.
[1F	.	.	[1cc
.	.	4a	.
.	.	4g	.
=45	=45	=45	=45
1F]	1f]	1a	1cc]
2.G	2r	2.d	2.b-
.	[2d	.	.
8F	.	4e	8a
8E	.	.	8g
=46	=46	=46	=46
0D	4d]	1f	2a
.	4d	.	.
.	2d	.	2.dd
.	2.f	2r	.
.	.	.	4dd
.	.	[2a	2dd
.	4e	.	.
=47	=47	=47	=47
0r	2d	4a]	2.ff
.	.	4a	.
.	2c	2a	.
.	.	.	4ee
.	2B-	2b-	2dd
.	2F	2a	2cc
=48	=48	=48	=48
0r	4G	2g	1.b-
.	4A	.	.
.	4B-	2d	.
.	4c	.	.
.	4d	1f	.
.	4e	.	.
.	[2f	.	2a
=49	=49	=49	=49
0r	2f]	1c	1g
.	2e	.	.
.	2.f	2.d	2f
.	.	.	[2a
.	4e	4e	.
=50	=50	=50	=50
2r	2d	2f	4a]
.	.	.	4a
2.A	2c	4e	2a
.	.	4d	.
.	2r	1e	2.cc
4A	.	.	.
2A	[2A	.	.
.	.	.	4dd
=51	=51	=51	=51
2.c	4A]	2r	0ee
.	4A	.	.
.	2A	2.e	.
4B-	.	.	.
4A	2.c	.	.
4G	.	4e	.
[2A	.	2e	.
.	4d	.	.
=52	=52	=52	=52
4A]	2e	0a	1cc
4G	.	.	.
4F	2.f	.	.
4E	.	.	.
4D	.	.	1dd
4E	4e	.	.
4F	[2d	.	.
4D	.	.	.
=53	=53	=53	=53
1E	2d]	1.g	1r
.	2c#	.	.
[1D	1d	.	2r
.	.	4f	[2dd
.	.	4e	.
=54	=54	=54	=54
0D]	2r	2.f	4dd]
.	.	.	4dd
.	2.d	.	2dd
.	.	4g	.
.	.	2a	2.ff
.	4d	.	.
.	2d	[2d	.
.	.	.	4ee
=55	=55	=55	=55
2r	2.f	4d]	4dd
.	.	4d	4cc
1D	.	2d	2dd
.	4e	.	.
.	4d	2.f	2b-
.	4c	.	.
2D	[2d	.	4a
.	.	4g	4g
=56	=56	=56	=56
2F	4d]	2a	4f
.	4c	.	4e
2.G	4B-	2.b-	2d
.	4A	.	.
.	4G	.	1dd
4F#	4A	4a	.
2G	4B-	[2g	.
.	4G	.	.
=57	=57	=57	=57
0D	0A	2g]	2dd
.	.	4f#	2dd
.	.	4e	.
.	.	1f#	1dd
=58	=58	=58	=58
0G	0G	0g	0b
=59	=59	=59	=59
0r	0r	1g	1r
.	.	1b-	1g
=60	=60	=60	=60
0r	0r	2g	1b-
.	.	2g	.
.	.	2b-	2g
.	.	2a	2f
=61	=61	=61	=61
0r	0r	2.g	2b-
.	.	.	2b-
.	.	4f	.
.	.	4e	1cc
.	.	4d	.
.	.	2e	.
=62	=62	=62	=62
1G	1r	[0d	0dd
1B-	1G	.	.
=63	=63	=63	=63
2G	1B-	0d]	0r
2G	.	.	.
2B-	2G	.	.
2A	2F	.	.
=64	=64	=64	=64
2.G	2B-	1r	0r
.	2B-	.	.
4F	.	.	.
4E	1c	2r	.
4D	.	.	.
2E	.	[2g	.
=65	=65	=65	=65
1D	1d	2g]	2r
.	.	2f	1dd
1r	1r	2b-	.
.	.	2a	2cc
=66	=66	=66	=66
0r	2r	4d	1.ff
.	.	4e	.
.	1d	4f	.
.	.	4g	.
.	.	4a	.
.	.	4b-	.
.	2c	[2cc	2ee
=67	=67	=67	=67
0r	2f	2cc]	2.dd
.	2g	2b-	.
.	.	.	8cc
.	.	.	8b-
.	2f	2a	4cc
.	.	.	4b-
.	2e-	[2g	4a
.	.	.	4g
=68	=68	=68	=68
1r	1d	2g]	1a
.	.	2f#	.
2r	[1G	1g	4g
.	.	.	4a
2G	.	.	4b-
.	.	.	4cc
=69	=69	=69	=69
1B-	1G]	2r	1dd
.	.	2g	.
[1G	1r	1b-	2r
.	.	.	2g
=70	=70	=70	=70
2G]	0r	2g	1b-
2G	.	2g	.
2G	.	2b-	2g
2D	.	2a	2f
=71	=71	=71	=71
1G	0r	2.g	2b-
.	.	.	2b-
.	.	4f	.
1A	.	4e	1cc
.	.	4d	.
.	.	2e	.
=72	=72	=72	=72
1.B-	2r	2d	1dd
.	1d	1b-	.
.	.	.	2r
2B-	2d	2b-	[2dd
=73	=73	=73	=73
2.B-	1.f	1b-	2dd]
.	.	.	2dd
4c	.	.	.
1d	.	1a	2dd
.	4e	.	[2dd
.	4d	.	.
=74	=74	=74	=74
1.A	1e	1a	2dd]
.	.	.	2cc
.	2r	2a	2ff
2G	[2d	[2b-	2gg
=75	=75	=75	=75
2B-	2d]	2b-]	2ff
2c	2c	2g	2.ee
2B-	2f	1b-	.
.	.	.	4dd
2G	2g	.	[2dd
=76	=76	=76	=76
2.A	2f	1a	2dd]
.	1e	.	2.cc
4B-	.	.	.
2c	.	2.g	.
.	.	.	4g
2G	[2d	.	2b-
.	.	4f	.
=77	=77	=77	=77
1A	4d]	1e	0a
.	4c#	.	.
.	2c#	.	.
[1D	2d	2f#	.
.	2f#	2a	.
=78	=78	=78	=78
1D]	1f#	1a	2r
.	.	.	2dd
1r	2g	2b-	2dd
.	2c	2cc	2ee-
=79	=79	=79	=79
0r	2.g	2.b-	1dd
.	4g	4b-	.
.	2e	2g	2.cc
.	[2f	[2a	.
.	.	.	4cc
=80	=80	=80	=80
0r	4f]	4a]	2a
.	4e	4g	.
.	4d	4f	2.b-
.	4c	4e	.
.	2.d	2.f	.
.	.	.	4a
.	.	.	[2a
.	4c	4e	.
=81	=81	=81	=81
2r	1B-	1d	2a]
1d	.	.	2g
.	1A	2e	2.a
2c#	.	[2a	.
.	.	.	4g
=82	=82	=82	=82
1d	2r	2a]	4f#
.	.	.	4e
.	1d	2a	2f#
1G	.	2.b-	1g
.	2d	.	.
.	.	4a	.
=83	=83	=83	=83
2c	2e	4g	0r
.	.	4f	.
2B-	2d	2g	.
2.A	2.c	2f	.
.	.	[2e	.
4G	4B-	.	.
=84	=84	=84	=84
2F	2A	4e]	0r
.	.	4d	.
2G	2B-	1d	.
1E	2G	.	.
.	[2g	2c#	.
=85	=85	=85	=85
1D	2g]	2d	2r
.	2f#	2a	2dd
1r	2g	2b-	2dd
.	2c	[2cc	2ee-
=86	=86	=86	=86
0r	2g	2cc]	1dd
.	2g	2b-	.
.	1c	2a	1cc
.	.	[2g	.
=87	=87	=87	=87
2r	1d	2g]	1a
2d	.	4f	.
.	.	4e	.
2d	1r	2f	2.b-
2e-	.	[2g	.
.	.	.	4cc
=88	=88	=88	=88
1d	1r	4g]	4b-
.	.	4f	4a
.	.	1f	4a
.	.	.	8g
.	.	.	8f
1c	2r	.	1g
.	[2c	2e	.
=89	=89	=89	=89
2A	2c]	2.f	2a
1B-	1d	.	2f
.	.	4e	.
.	.	2d	2g
2A	2c	4e	2a
.	.	4f	.
=90	=90	=90	=90
1G	4B-	2.g	1b-
.	4G	.	.
.	1d	.	.
.	.	4f	.
1A	.	2e	1a
.	2c#	2a	.
=91	=91	=91	=91
2r	2d	2a	0r
2d	2f	2b-	.
2d	2f	2a	.
2e-	[2g	2g	.
=92	=92	=92	=92
2d	2g]	2b-	0r
2d	1f	4a	.
.	.	8g	.
.	.	8f	.
2.c	.	1g	.
.	2e	.	.
4B-	.	.	.
=93	=93	=93	=93
2A	1f	2a	2r
2B-	.	2d	2dd
1G	2r	[1b-	2dd
.	2g	.	2ee-
=94	=94	=94	=94
0r	2g	2b-]	0dd
.	2f#	2a	.
.	2g	2b-	.
.	[2f	4a	.
.	.	4g	.
=95	=95	=95	=95
1r	2f]	2a	2.cc
.	2c	2g	.
.	.	.	4cc
2r	1d	2f#	2a
[2G	.	2g	[2b-
=96	=96	=96	=96
2G]	2G	1.d	2b-]
2F#	2A	.	1a
1G	1B-	.	.
.	.	2e	2g
=97	=97	=97	=97
2D	2A	2.f	2a
1D	1f	.	1dd
.	.	4g	.
.	.	[1a	.
2C#	2e	.	2ee
=98	=98	=98	=98
2.D	1d	0a]	0ff
4E	.	.	.
1F	1c	.	.
=99	=99	=99	=99
2C	1c	1g	1ee
2c	.	.	.
2A	2e	1r	1r
2G	2g	.	.
=100	=100	=100	=100
2.F	2.a	1r	1cc
4G	4g	.	.
4A	2f	1c	2a
4B-	.	.	.
[2c	[2e	.	[2g
=101	=101	=101	=101
2c]	2e]	2e	4g]
.	.	.	4f
2B-	1d	2g	2d
1A	.	2a	2e
.	2c#	2a	2e
=102	=102	=102	=102
1D	1d	2f	2d
.	.	2d	2f
1r	2r	2f	2a
.	2A	2e	2cc
=103	=103	=103	=103
0r	2.B-	2d	1dd
.	.	2f	.
.	4A	.	.
.	2G	2g	2b-
.	2F	4a	[2a
.	.	8g	.
.	.	8a	.
=104	=104	=104	=104
0r	1G	1b-	2a]
.	.	.	1g
.	1d	1a	.
.	.	.	2f#
=105	=105	=105	=105
1r	1G	2.g	4g
.	.	.	4a
.	.	.	4b-
.	.	4a	4cc
2r	2r	2b-	1dd
2D	2F	[2a	.
=106	=106	=106	=106
2F	2A	2a]	1cc
2E	2c	2g	.
1D	1d	2f	2r
.	.	2d	2f
=107	=107	=107	=107
2d	0r	2f	2a
2A	.	2e	2cc
1B-	.	[1d	1dd
=108	=108	=108	=108
2G	2r	1d]	2b-
2D	2F	.	1a
2F	2A	2r	.
2E	2c	2G	[2g
=109	=109	=109	=109
1D	1d	2B-	2g]
.	.	2A	2f#
2G	2B-	2G	2g
2F#	[2A	[2d	2a
=110	=110	=110	=110
1G	2A]	2d]	2.b-
.	1G	2d	.
.	.	.	4a
1D	.	2.d	2b-
.	2F#	.	[2a
.	.	4c	.
=111	=111	=111	=111
1E-	1G	2B-	4a]
.	.	.	4g
.	.	2c	1g
1D	1A	1d	.
.	.	.	2f#
=112	=112	=112	=112
0G	0G	0d	0g
==	==	==	==
*-	*-	*-	*-
!!!CDT: 1525/^1526/-1594/2/2
!!!OCY: Italia
!!!AGN: Mass (Paraphrase)
!!!AST: renaissance, vocal
!!!ASW: Hymn
!!!PWK: Masses, Book 5
!!!RNB: Cadence finals: D
!!!YOR: Le Opere Complete, v. 15, p. 20
!!!YOO: Rome, Italy: Fratelli Scalera
!!!END: 1992//
!!!EED: John Miller
!!!YEC: Copyright 2000, John Miller
!!!YEN: United States of America
!!!YEM: Rights to all derivative electronic formats reserved.
!!!YEM: Refer to licensing agreement for further details.
!!!YEM: This file must be accompanied by the licensing agreement.
!!!YEM: A copy of the licensing agreement may be found at http://www.music-cog.ohio-state.edu/HumdrumDatabases/Palestrina/license.txt
!!!EMD: converted to Humdrum by Bret Aarden
